static/assets/img/icons/theme/code/settings-4.svg

<svg height="24" viewBox="0 0 24 24" width="24" xmlns="http://www.w3.org/2000/svg"><g fill="none" fill-rule="evenodd"><path d="m0 0h24v24h-24z" opacity="0"/><g fill="#000"><path d="m18.6225 9.75h.1275c1.2426407 0 2.25 1.0073593 2.25 2.25s-1.0073593 2.25-2.25 2.25l-.0645088-.000006c-.1943036.000775-.3695934.116861-.4461363.2954546-.083674.1896975-.0450638.4026384.0884752.5392213l.0447049.0447051c.4224984.4220286.659895.9947042.659895 1.591875s-.2373966 1.1698464-.659305 1.591285c-.4220286.4224984-.9947042.659895-1.591875.659895s-1.1698464-.2373966-1.5915801-.6595999l-.0391186-.0391832c-.1424643-.1393558-.3554052-.177966-.5451027-.094292-.1785936.0765429-.2946796.2518327-.2954486.4431451v.1275c0 1.2426407-1.0073593 2.25-2.25 2.25s-2.25-1.0073593-2.25-2.25c-.00447591-.2500815-.13101461-.4270014-.36282401-.5138531-.18232206-.080466-.39526301-.0418558-.5318459.0916832l-.04470509.0447049c-.42202858.4224984-.99470419.659895-1.591875.659895s-1.16984642-.2373966-1.59128501-.659305c-.42249834-.4220286-.65989497-.9947042-.65989497-1.591875s.23739663-1.1698464.65959989-1.5915801l.03918315-.0391186c.13935583-.1424643.177966-.3554052.09429207-.5451027-.0765429-.1785936-.25183277-.2946796-.44314513-.2954486h-.1275c-1.24264069 0-2.25-1.0073593-2.25-2.25s1.00735931-2.25 2.25-2.25c.25008154-.00447591.42700139-.13101461.51385306-.36282401.080466-.18232206.04185583-.39526301-.09168315-.5318459l-.04470492-.04470509c-.42249834-.42202858-.65989497-.99470419-.65989497-1.591875s.23739663-1.16984642.65930498-1.59128501c.42202858-.42249834.99470419-.65989497 1.591875-.65989497s1.16984642.23739663 1.59158009.65959989l.03911863.03918315c.14246426.13935583.35540521.177966.53772727.0975l.10767065-.02270329c.15556649-.08426003.25444386-.24713504.25515336-.42364977v-.1275c0-1.24264069 1.0073593-2.25 2.25-2.25s2.25 1.00735931 2.25 2.25l-.000006.06450877c.000775.19430359.116861.36959346.30283.44934429.1823221.080466.395263.04185583.5318459-.09168315l.0447051-.04470492c.4220286-.42249834.9947042-.65989497 1.591875-.65989497s1.1698464.23739663 1.591285.65930498c.4224984.42202858.659895.99470419.659895 1.591875s-.2373966 1.16984642-.6595999 1.59158009l-.0391832.03911863c-.1393558.14246426-.177966.35540521-.0975.53772727l.0227033.10767065c.0842601.15556649.2471351.25444386.4236498.25515336z" fill-rule="nonzero" opacity=".3"/><path d="m12 15c1.6568542 0 3-1.3431458 3-3s-1.3431458-3-3-3-3 1.3431458-3 3 1.3431458 3 3 3z"/></g></g></svg>

<svg width="24px" height="24px" viewBox="0 0 24 24" version="1.1" xmlns="http://www.w3.org/2000/svg" xmlns:xlink="http://www.w3.org/1999/xlink">
    <title>Icon For Settings#4</title>
    <g stroke="none" stroke-width="1" fill="none" fill-rule="evenodd">
        <rect opacity="0" x="0" y="0" width="24" height="24"></rect>
        <path d="M18.6225,9.75 L18.75,9.75 C19.9926407,9.75 21,10.7573593 21,12 C21,13.2426407 19.9926407,14.25 18.75,14.25 L18.6854912,14.249994 C18.4911876,14.250769 18.3158978,14.366855 18.2393549,14.5454486 C18.1556809,14.7351461 18.1942911,14.948087 18.3278301,15.0846699 L18.372535,15.129375 C18.7950334,15.5514036 19.03243,16.1240792 19.03243,16.72125 C19.03243,17.3184208 18.7950334,17.8910964 18.373125,18.312535 C17.9510964,18.7350334 17.3784208,18.97243 16.78125,18.97243 C16.1840792,18.97243 15.6114036,18.7350334 15.1896699,18.3128301 L15.1505513,18.2736469 C15.008087,18.1342911 14.7951461,18.0956809 14.6054486,18.1793549 C14.426855,18.2558978 14.310769,18.4311876 14.31,18.6225 L14.31,18.75 C14.31,19.9926407 13.3026407,21 12.06,21 C10.8173593,21 9.81,19.9926407 9.81,18.75 C9.80552409,18.4999185 9.67898539,18.3229986 9.44717599,18.2361469 C9.26485393,18.1556809 9.05191298,18.1942911 8.91533009,18.3278301 L8.870625,18.372535 C8.44859642,18.7950334 7.87592081,19.03243 7.27875,19.03243 C6.68157919,19.03243 6.10890358,18.7950334 5.68746499,18.373125 C5.26496665,17.9510964 5.02757002,17.3784208 5.02757002,16.78125 C5.02757002,16.1840792 5.26496665,15.6114036 5.68716991,15.1896699 L5.72635306,15.1505513 C5.86570889,15.008087 5.90431906,14.7951461 5.82064513,14.6054486 C5.74410223,14.426855 5.56881236,14.310769 5.3775,14.31 L5.25,14.31 C4.00735931,14.31 3,13.3026407 3,12.06 C3,10.8173593 4.00735931,9.81 5.25,9.81 C5.50008154,9.80552409 5.67700139,9.67898539 5.76385306,9.44717599 C5.84431906,9.26485393 5.80570889,9.05191298 5.67216991,8.91533009 L5.62746499,8.870625 C5.20496665,8.44859642 4.96757002,7.87592081 4.96757002,7.27875 C4.96757002,6.68157919 5.20496665,6.10890358 5.626875,5.68746499 C6.04890358,5.26496665 6.62157919,5.02757002 7.21875,5.02757002 C7.81592081,5.02757002 8.38859642,5.26496665 8.81033009,5.68716991 L8.84944872,5.72635306 C8.99191298,5.86570889 9.20485393,5.90431906 9.38717599,5.82385306 L9.49484664,5.80114977 C9.65041313,5.71688974 9.7492905,5.55401473 9.75,5.3775 L9.75,5.25 C9.75,4.00735931 10.7573593,3 12,3 C13.2426407,3 14.25,4.00735931 14.25,5.25 L14.249994,5.31450877 C14.250769,5.50881236 14.366855,5.68410223 14.552824,5.76385306 C14.7351461,5.84431906 14.948087,5.80570889 15.0846699,5.67216991 L15.129375,5.62746499 C15.5514036,5.20496665 16.1240792,4.96757002 16.72125,4.96757002 C17.3184208,4.96757002 17.8910964,5.20496665 18.312535,5.626875 C18.7350334,6.04890358 18.97243,6.62157919 18.97243,7.21875 C18.97243,7.81592081 18.7350334,8.38859642 18.3128301,8.81033009 L18.2736469,8.84944872 C18.1342911,8.99191298 18.0956809,9.20485393 18.1761469,9.38717599 L18.1988502,9.49484664 C18.2831103,9.65041313 18.4459853,9.7492905 18.6225,9.75 Z" fill="#000000" fill-rule="nonzero" opacity="0.3"></path>
        <path d="M12,15 C13.6568542,15 15,13.6568542 15,12 C15,10.3431458 13.6568542,9 12,9 C10.3431458,9 9,10.3431458 9,12 C9,13.6568542 10.3431458,15 12,15 Z" fill="#000000"></path>
    </g>
</svg>
